X:1
T:Kiss the maid behind the barrel. A Cork Reel
N:From P. Carew's MSS
R:Reel
M:C
L:1/8
B:Stanford/Petrie (1905, No. 885, p. 224)
Z:AK/Fiddler's Companion
K:G
G2 BG AGBG|G2 BG AGFA|G2 BG AGBG|de=fd cAFA:|
dgg2 ag g2|dg ga bgaf|defg afge|de=fd cAFA|
dg g2 bg g2|agfg abc'a|bgaf gefd|de=fd cAFA||

